file/sany.svg

<svg clip-rule="evenodd" fill-rule="evenodd" stroke-linejoin="round" stroke-miterlimit="1.41421" viewBox="0 0 560 400" xmlns="http://www.w3.org/2000/svg"><g transform="matrix(1.2717 0 0 1.2717 99.0377 154.003)"><path d="m135.271 18.05-31.708-.057c-7.064 1.027-11.416 5.89-11.539 12.067 0 .285.042.572.086.863.734 5.758 5.634 10.809 12.01 10.945l20.159-.178c1.004.121 1.638.582 1.644 1.565.015.641-.424 1.092-1.578 1.383l-30.832-.001.061 10.493h32.65c6.708-1.044 11.459-6.505 10.515-13.307-.786-5.717-4.91-9.497-10.896-10.445l-20.963.06c-1.199-.054-1.639-.709-1.684-1.393-.07-.983.656-1.373 1.613-1.492l30.584.058z" fill="#525153"/><path d="m157.271 39.417 4.346-9.947 4.284 9.947zm11.251-21.307-13.814-.061-18.456 37.107 13.877.108 2.737-6.289h17.379l2.793 6.238 13.82-.058z" fill="#525153"/><path d="m202.614 18.131-13.665-.053-.061 37.051h10.443v-24.697l18.295 24.697h13.482l.061-36.998h-10.55l.235 24.645z" fill="#525153"/><path d="m246.404 18.088h-13.488l18.594 24.31v12.808h13.491l-.059-12.867 18.907-24.194-13.688-.057-11.872 15.678z" fill="#525153"/><g fill="#ed1c24"><path d="m4.593 56.372 20.377-5.784c.262-.09.436-.32.415-.57-.014-.247-.152-.492-.506-.576l-3.04-.497-.125-.045c-.174-.1-.313-.342-.125-.591l11.736-12.692c1.177-1.428 2.816-2.292 4.784-1.696l-4.373-12.655-30.252 33.302c-.37.411-.407.922-.155 1.311.254.367.684.582 1.264.493"/><path d="m35.809 1.554-4.893 19.562c-.046.256.078.519.319.627.229.111.518.113.771-.13l1.981-2.228.1-.078c.183-.096.467-.085.612.194l5.892 16.494c.747 2.176-.048 3.469-1.282 4.517l14.075 2.527-15.366-41.477c-.196-.507-.642-.797-1.112-.777-.477.01-.887.259-1.097.769"/><path d="m70.494 54.539-15.531-13.759c-.217-.171-.513-.194-.739-.06-.222.128-.363.371-.268.705l1.062 2.728.017.119c0 .2-.157.43-.479.404l-18.092-3.409c-1.72-.325-2.962-1.12-3.52-3.231l-9.332 10.186 45.774 8.111c.559.098 1.056-.119 1.279-.521.215-.393.192-.853-.171-1.273"/><path d="m70.081 51.006c5.319-11.138 3.187-24.582-4.513-34.258-5.214-6.551-13.877-11.797-24.214-12.983-1.017-.049-1.213 1.045-.287 1.383 20.794 5.296 33.085 22.223 27.614 45.397-.164.46.045.816.456.94.425.118.7.031.944-.479"/><path d="m8.08 57.917c7.584 9.895 20.997 14.862 33.74 13.381 8.604-.98 17.631-5.354 23.874-13.211.445-.592.168-1.04-.217-1.182-.269-.101-.667-.059-.961.374-15.252 14.362-36.765 15.732-55.332-.296-.317-.413-.723-.44-1.018-.276-.349.199-.513.67-.086 1.21"/><path d="m32.857 3.701c-12.881 1.33-24.533 9.917-29.463 21.098-3.346 7.548-3.82 17.053.349 26.059.398.646 1.084.453 1.323.016.085-.152.079-.374-.021-.606-5.712-19.75 4.122-38.01 28.07-45.187.959-.231.631-1.476-.258-1.38"/></g></g></svg>

<?xml version="1.0" encoding="UTF-8" standalone="no"?>
<!DOCTYPE svg PUBLIC "-//W3C//DTD SVG 1.1//EN" "http://www.w3.org/Graphics/SVG/1.1/DTD/svg11.dtd">
<svg width="100%" height="100%" viewBox="0 0 560 400" version="1.1" xmlns="http://www.w3.org/2000/svg" xmlns:xlink="http://www.w3.org/1999/xlink" xml:space="preserve" xmlns:serif="http://www.serif.com/" style="fill-rule:evenodd;clip-rule:evenodd;stroke-linejoin:round;stroke-miterlimit:1.41421;">
    <g transform="matrix(1.2717,0,0,1.2717,99.0377,154.003)">
        <path d="M135.271,18.05L103.563,17.993C96.499,19.02 92.147,23.883 92.024,30.06C92.024,30.345 92.066,30.632 92.11,30.923C92.844,36.681 97.744,41.732 104.12,41.868L124.279,41.69C125.283,41.811 125.917,42.272 125.923,43.255C125.938,43.896 125.499,44.347 124.345,44.638L93.513,44.637L93.574,55.13L126.224,55.13C132.932,54.086 137.683,48.625 136.739,41.823C135.953,36.106 131.829,32.326 125.843,31.378L104.88,31.438C103.681,31.384 103.241,30.729 103.196,30.045C103.126,29.062 103.852,28.672 104.809,28.553L135.393,28.611L135.271,18.05Z" style="fill:rgb(82,81,83);"/>
        <path d="M157.271,39.417L161.617,29.47L165.901,39.417L157.271,39.417ZM168.522,18.11L154.708,18.049L136.252,55.156L150.129,55.264L152.866,48.975L170.245,48.975L173.038,55.213L186.858,55.155L168.522,18.11Z" style="fill:rgb(82,81,83);"/>
        <path d="M202.614,18.131L188.949,18.078L188.888,55.129L199.331,55.129L199.331,30.432L217.626,55.129L231.108,55.129L231.169,18.131L220.619,18.131L220.854,42.776L202.614,18.131Z" style="fill:rgb(82,81,83);"/>
        <path d="M246.404,18.088L232.916,18.088L251.51,42.398L251.51,55.206L265.001,55.206L264.942,42.339L283.849,18.145L270.161,18.088L258.289,33.766L246.404,18.088Z" style="fill:rgb(82,81,83);"/>
        <path d="M4.593,56.372L24.97,50.588C25.232,50.498 25.406,50.268 25.385,50.018C25.371,49.771 25.233,49.526 24.879,49.442L21.839,48.945L21.714,48.9C21.54,48.8 21.401,48.558 21.589,48.309L33.325,35.617C34.502,34.189 36.141,33.325 38.109,33.921L33.736,21.266L3.484,54.568C3.114,54.979 3.077,55.49 3.329,55.879C3.583,56.246 4.013,56.461 4.593,56.372" style="fill:rgb(237,28,36);"/>
        <path d="M35.809,1.554L30.916,21.116C30.87,21.372 30.994,21.635 31.235,21.743C31.464,21.854 31.753,21.856 32.006,21.613L33.987,19.385L34.087,19.307C34.27,19.211 34.554,19.222 34.699,19.501L40.591,35.995C41.338,38.171 40.543,39.464 39.309,40.512L53.384,43.039L38.018,1.562C37.822,1.055 37.376,0.765 36.906,0.785C36.429,0.795 36.019,1.044 35.809,1.554" style="fill:rgb(237,28,36);"/>
        <path d="M70.494,54.539L54.963,40.78C54.746,40.609 54.45,40.586 54.224,40.72C54.002,40.848 53.861,41.091 53.956,41.425L55.018,44.153L55.035,44.272C55.035,44.472 54.878,44.702 54.556,44.676L36.464,41.267C34.744,40.942 33.502,40.147 32.944,38.036L23.612,48.222L69.386,56.333C69.945,56.431 70.442,56.214 70.665,55.812C70.88,55.419 70.857,54.959 70.494,54.539" style="fill:rgb(237,28,36);"/>
        <path d="M70.081,51.006C75.4,39.868 73.268,26.424 65.568,16.748C60.354,10.197 51.691,4.951 41.354,3.765C40.337,3.716 40.141,4.81 41.067,5.148C61.861,10.444 74.152,27.371 68.681,50.545C68.517,51.005 68.726,51.361 69.137,51.485C69.562,51.603 69.837,51.516 70.081,51.006" style="fill:rgb(237,28,36);"/>
        <path d="M8.08,57.917C15.664,67.812 29.077,72.779 41.82,71.298C50.424,70.318 59.451,65.944 65.694,58.087C66.139,57.495 65.862,57.047 65.477,56.905C65.208,56.804 64.81,56.846 64.516,57.279C49.264,71.641 27.751,73.011 9.184,56.983C8.867,56.57 8.461,56.543 8.166,56.707C7.817,56.906 7.653,57.377 8.08,57.917" style="fill:rgb(237,28,36);"/>
        <path d="M32.857,3.701C19.976,5.031 8.324,13.618 3.394,24.799C0.048,32.347 -0.426,41.852 3.743,50.858C4.141,51.504 4.827,51.311 5.066,50.874C5.151,50.722 5.145,50.5 5.045,50.268C-0.667,30.518 9.167,12.258 33.115,5.081C34.074,4.85 33.746,3.605 32.857,3.701" style="fill:rgb(237,28,36);"/>
    </g>
</svg>
